X: 40851
T: Traveller's Rest, The
R: jig
M: 6/8
K: Dmajor
|:dcd Bcd|ecA GFE|DFA GBd|Agf edc|
dcd Bcd|ecA GFE|DFA GBd|1 Adc d2 A:|2 Afe d3||
|:fef def|gec AGE|FAd GBd|Agf e2 e|
fef def|gec AGE|FAd GBd|1 Afe d2 e:|2 Adc d3||

